raw/symbols/stock.svg

<svg width="42" height="42" viewBox="0 0 42 42" fill="none" xmlns="http://www.w3.org/2000/svg">
<path d="M21 0C32.5967 0 42 9.40333 42 21C42 32.5967 32.5967 42 21 42C9.40333 42 0 32.6025 0 21C0 9.3975 9.40333 0 21 0Z" fill="#EFEFEF"/>
<path fill-rule="evenodd" clip-rule="evenodd" d="M32.292 9.26129C33.1529 9.75835 33.4479 10.8592 32.9508 11.7201L25.314 24.9474C24.817 25.8083 23.7161 26.1033 22.8552 25.6062L15.5959 23.5689L11.4047 30.8282C10.9077 31.6892 9.80679 31.9841 8.94587 31.4871C8.08494 30.99 7.78996 29.8892 8.28702 29.0282L13.3782 20.2101C13.8752 19.3491 14.9761 19.0542 15.837 19.5512L23.0964 21.5885L29.8331 9.92014C30.3302 9.05921 31.431 8.76424 32.292 9.26129Z" fill="#F35555"/>
</svg>

<svg xmlns="http://www.w3.org/2000/svg" width="42" height="42" fill="none"><path fill="#EFEFEF" d="M21 0c11.597 0 21 9.403 21 21s-9.403 21-21 21S0 32.602 0 21 9.403 0 21 0Z"/><path fill="#F35555" fill-rule="evenodd" d="M32.292 9.261a1.8 1.8 0 0 1 .659 2.46l-7.637 13.226a1.8 1.8 0 0 1-2.459.66l-7.26-2.038-4.19 7.26a1.8 1.8 0 1 1-3.118-1.8l5.091-8.819a1.8 1.8 0 0 1 2.459-.659l7.26 2.038L29.832 9.92a1.8 1.8 0 0 1 2.459-.659Z" clip-rule="evenodd"/></svg>
